X:1
T:Love Theme (Cinema Paradiso)
C:Ennio Morricone
M:C
L:1/8
Q:1/4=66
V: Der
%%MIDI program 0 %   
K:Bb clef=treble
[BD]3 (D E)BAG  | [M:2/4] Ac F>E | [M:4/4] E2 D2 z D FA | cBAB d2 d
G^FGf e4 | z (cgf- fedc | B2) B cBAF | G6 AB |
A8 | B2 D EBAG| [M:2/4] Ac F>E| [M:4/4] E2 D2 z D FA |
cBAB d3 d | G^FGf e4 |z (cgf- fedc | B3) B cBAF |
G6 AB | F6 -  FE | E4 D4  | B3 (D E)BAG| [M:2/4] Ac F>E|
[M:4/4] E2 D2 z D FA |cBAB d3 d |G^FGf  edcB    

